images/3234470.svg

<?xml version="1.0" encoding="UTF-8"?>
<svg xmlns="http://www.w3.org/2000/svg" xmlns:xlink="http://www.w3.org/1999/xlink" width="300pt" height="300pt" viewBox="0 0 300 300" version="1.1">
<defs>
<g>
<symbol overflow="visible" id="glyph0-0">
<path style="stroke:none;" d="M 0.75 2.65625 L 0.75 -10.578125 L 8.25 -10.578125 L 8.25 2.65625 Z M 1.59375 1.8125 L 7.40625 1.8125 L 7.40625 -9.734375 L 1.59375 -9.734375 Z M 1.59375 1.8125 "/>
</symbol>
<symbol overflow="visible" id="glyph0-1">
<path style="stroke:none;" d="M 1.46875 -10.9375 L 3.46875 -10.9375 L 8.3125 -1.78125 L 8.3125 -10.9375 L 9.75 -10.9375 L 9.75 0 L 7.75 0 L 2.90625 -9.140625 L 2.90625 0 L 1.46875 0 Z M 1.46875 -10.9375 "/>
</symbol>
<symbol overflow="visible" id="glyph0-2">
<path style="stroke:none;" d="M 1.46875 -10.9375 L 2.953125 -10.9375 L 2.953125 -6.453125 L 8.328125 -6.453125 L 8.328125 -10.9375 L 9.8125 -10.9375 L 9.8125 0 L 8.328125 0 L 8.328125 -5.203125 L 2.953125 -5.203125 L 2.953125 0 L 1.46875 0 Z M 1.46875 -10.9375 "/>
</symbol>
<symbol overflow="visible" id="glyph0-3">
<path style="stroke:none;" d="M 5.90625 -9.9375 C 4.832031 -9.9375 3.976562 -9.535156 3.34375 -8.734375 C 2.71875 -7.929688 2.40625 -6.835938 2.40625 -5.453125 C 2.40625 -4.078125 2.71875 -2.988281 3.34375 -2.1875 C 3.976562 -1.382812 4.832031 -0.984375 5.90625 -0.984375 C 6.976562 -0.984375 7.828125 -1.382812 8.453125 -2.1875 C 9.085938 -2.988281 9.40625 -4.078125 9.40625 -5.453125 C 9.40625 -6.835938 9.085938 -7.929688 8.453125 -8.734375 C 7.828125 -9.535156 6.976562 -9.9375 5.90625 -9.9375 Z M 5.90625 -11.140625 C 7.4375 -11.140625 8.660156 -10.625 9.578125 -9.59375 C 10.503906 -8.5625 10.96875 -7.179688 10.96875 -5.453125 C 10.96875 -3.734375 10.503906 -2.359375 9.578125 -1.328125 C 8.660156 -0.296875 7.4375 0.21875 5.90625 0.21875 C 4.375 0.21875 3.144531 -0.289062 2.21875 -1.3125 C 1.300781 -2.34375 0.84375 -3.722656 0.84375 -5.453125 C 0.84375 -7.179688 1.300781 -8.5625 2.21875 -9.59375 C 3.144531 -10.625 4.375 -11.140625 5.90625 -11.140625 Z M 5.90625 -11.140625 "/>
</symbol>
</g>
</defs>
<g id="surface31913">
<rect x="0" y="0" width="300" height="300" style="fill:rgb(100%,100%,100%);fill-opacity:1;stroke:none;"/>
<path style="fill:none;stroke-width:1.2;stroke-linecap:butt;stroke-linejoin:miter;stroke:rgb(0%,0%,0%);stroke-opacity:1;stroke-miterlimit:10;" d="M 35.25 89.53125 L 70.273438 83.945312 "/>
<path style="fill:none;stroke-width:1.2;stroke-linecap:butt;stroke-linejoin:miter;stroke:rgb(0%,0%,0%);stroke-opacity:1;stroke-miterlimit:10;" d="M 70.273438 83.945312 L 81.449219 97.714844 "/>
<path style="fill:none;stroke-width:1.2;stroke-linecap:butt;stroke-linejoin:miter;stroke:rgb(0%,0%,100%);stroke-opacity:1;stroke-miterlimit:10;" d="M 81.449219 97.714844 L 92.625 111.484375 "/>
<path style="fill:none;stroke-width:1.2;stroke-linecap:butt;stroke-linejoin:miter;stroke:rgb(0%,0%,100%);stroke-opacity:1;stroke-miterlimit:10;" d="M 92.625 111.484375 L 110.136719 108.691406 "/>
<path style="fill:none;stroke-width:1.2;stroke-linecap:butt;stroke-linejoin:miter;stroke:rgb(0%,0%,0%);stroke-opacity:1;stroke-miterlimit:10;" d="M 110.136719 108.691406 L 127.648438 105.898438 "/>
<path style=" stroke:none;fill-rule:nonzero;fill:rgb(100%,100%,100%);fill-opacity:1;" d="M 81.625 102.484375 L 104.625 102.484375 L 104.625 120.484375 L 81.625 120.484375 Z M 81.625 102.484375 "/>
<g style="fill:rgb(0%,0%,100%);fill-opacity:1;">
  <use xlink:href="#glyph0-1" x="81.625" y="116.098633"/>
  <use xlink:href="#glyph0-2" x="92.600586" y="116.098633"/>
</g>
<path style="fill:none;stroke-width:1.2;stroke-linecap:butt;stroke-linejoin:miter;stroke:rgb(0%,0%,0%);stroke-opacity:1;stroke-miterlimit:10;" d="M 127.648438 105.898438 L 133.988281 89.335938 "/>
<path style="fill:none;stroke-width:1.2;stroke-linecap:butt;stroke-linejoin:miter;stroke:rgb(0%,0%,100%);stroke-opacity:1;stroke-miterlimit:10;" d="M 133.988281 89.335938 L 140.324219 72.773438 "/>
<path style="fill:none;stroke-width:1.2;stroke-linecap:butt;stroke-linejoin:miter;stroke:rgb(0%,0%,0%);stroke-opacity:1;stroke-miterlimit:10;" d="M 136.710938 105.566406 L 141.78125 92.316406 "/>
<path style="fill:none;stroke-width:1.2;stroke-linecap:butt;stroke-linejoin:miter;stroke:rgb(0%,0%,100%);stroke-opacity:1;stroke-miterlimit:10;" d="M 141.78125 92.316406 L 146.851562 79.066406 "/>
<path style="fill:none;stroke-width:1.2;stroke-linecap:butt;stroke-linejoin:miter;stroke:rgb(0%,0%,100%);stroke-opacity:1;stroke-miterlimit:10;" d="M 150 133.4375 L 138.824219 119.667969 "/>
<path style="fill:none;stroke-width:1.2;stroke-linecap:butt;stroke-linejoin:miter;stroke:rgb(0%,0%,0%);stroke-opacity:1;stroke-miterlimit:10;" d="M 138.824219 119.667969 L 127.648438 105.898438 "/>
<path style="fill:none;stroke-width:1.2;stroke-linecap:butt;stroke-linejoin:miter;stroke:rgb(0%,0%,100%);stroke-opacity:1;stroke-miterlimit:10;" d="M 140.324219 72.773438 L 157.835938 69.980469 "/>
<path style="fill:none;stroke-width:1.2;stroke-linecap:butt;stroke-linejoin:miter;stroke:rgb(0%,0%,0%);stroke-opacity:1;stroke-miterlimit:10;" d="M 157.835938 69.980469 L 175.347656 67.1875 "/>
<path style=" stroke:none;fill-rule:nonzero;fill:rgb(100%,100%,100%);fill-opacity:1;" d="M 135.324219 63.773438 L 146.324219 63.773438 L 146.324219 81.773438 L 135.324219 81.773438 Z M 135.324219 63.773438 "/>
<g style="fill:rgb(0%,0%,100%);fill-opacity:1;">
  <use xlink:href="#glyph0-1" x="135.324219" y="77.387695"/>
</g>
<path style="fill:none;stroke-width:1.2;stroke-linecap:butt;stroke-linejoin:miter;stroke:rgb(0%,0%,0%);stroke-opacity:1;stroke-miterlimit:10;" d="M 175.347656 67.1875 L 197.699219 94.726562 "/>
<path style="fill:none;stroke-width:1.2;stroke-linecap:butt;stroke-linejoin:miter;stroke:rgb(0%,0%,0%);stroke-opacity:1;stroke-miterlimit:10;" d="M 171.105469 75.199219 L 188.984375 97.230469 "/>
<path style="fill:none;stroke-width:1.2;stroke-linecap:butt;stroke-linejoin:miter;stroke:rgb(0%,0%,0%);stroke-opacity:1;stroke-miterlimit:10;" d="M 197.699219 94.726562 L 185.023438 127.851562 "/>
<path style="fill:none;stroke-width:1.2;stroke-linecap:butt;stroke-linejoin:miter;stroke:rgb(0%,0%,100%);stroke-opacity:1;stroke-miterlimit:10;" d="M 232.722656 89.140625 L 215.210938 91.933594 "/>
<path style="fill:none;stroke-width:1.2;stroke-linecap:butt;stroke-linejoin:miter;stroke:rgb(0%,0%,0%);stroke-opacity:1;stroke-miterlimit:10;" d="M 215.210938 91.933594 L 197.699219 94.726562 "/>
<path style="fill:none;stroke-width:1.2;stroke-linecap:butt;stroke-linejoin:miter;stroke:rgb(0%,0%,0%);stroke-opacity:1;stroke-miterlimit:10;" d="M 185.023438 127.851562 L 167.511719 130.644531 "/>
<path style="fill:none;stroke-width:1.2;stroke-linecap:butt;stroke-linejoin:miter;stroke:rgb(0%,0%,100%);stroke-opacity:1;stroke-miterlimit:10;" d="M 167.511719 130.644531 L 150 133.4375 "/>
<path style="fill:none;stroke-width:1.2;stroke-linecap:butt;stroke-linejoin:miter;stroke:rgb(0%,0%,0%);stroke-opacity:1;stroke-miterlimit:10;" d="M 180.207031 120.167969 L 166.199219 122.402344 "/>
<path style="fill:none;stroke-width:1.2;stroke-linecap:butt;stroke-linejoin:miter;stroke:rgb(0%,0%,100%);stroke-opacity:1;stroke-miterlimit:10;" d="M 166.199219 122.402344 L 152.1875 124.636719 "/>
<path style="fill:none;stroke-width:1.2;stroke-linecap:butt;stroke-linejoin:miter;stroke:rgb(0%,0%,0%);stroke-opacity:1;stroke-miterlimit:10;" d="M 185.023438 127.851562 L 196.199219 141.621094 "/>
<path style="fill:none;stroke-width:1.2;stroke-linecap:butt;stroke-linejoin:miter;stroke:rgb(0%,0%,100%);stroke-opacity:1;stroke-miterlimit:10;" d="M 196.199219 141.621094 L 207.375 155.390625 "/>
<path style=" stroke:none;fill-rule:nonzero;fill:rgb(100%,100%,100%);fill-opacity:1;" d="M 145 124.4375 L 156 124.4375 L 156 142.4375 L 145 142.4375 Z M 145 124.4375 "/>
<g style="fill:rgb(0%,0%,100%);fill-opacity:1;">
  <use xlink:href="#glyph0-1" x="145" y="138.051758"/>
</g>
<path style="fill:none;stroke-width:1.2;stroke-linecap:butt;stroke-linejoin:miter;stroke:rgb(0%,0%,100%);stroke-opacity:1;stroke-miterlimit:10;" d="M 207.375 155.390625 L 224.886719 152.597656 "/>
<path style="fill:none;stroke-width:1.2;stroke-linecap:butt;stroke-linejoin:miter;stroke:rgb(0%,0%,0%);stroke-opacity:1;stroke-miterlimit:10;" d="M 224.886719 152.597656 L 242.398438 149.804688 "/>
<path style="fill:none;stroke-width:1.2;stroke-linecap:butt;stroke-linejoin:miter;stroke:rgb(0%,0%,100%);stroke-opacity:1;stroke-miterlimit:10;" d="M 207.375 155.390625 L 201.039062 171.953125 "/>
<path style="fill:none;stroke-width:1.2;stroke-linecap:butt;stroke-linejoin:miter;stroke:rgb(0%,0%,0%);stroke-opacity:1;stroke-miterlimit:10;" d="M 201.039062 171.953125 L 194.699219 188.515625 "/>
<path style=" stroke:none;fill-rule:nonzero;fill:rgb(100%,100%,100%);fill-opacity:1;" d="M 202.375 146.390625 L 213.375 146.390625 L 213.375 164.390625 L 202.375 164.390625 Z M 202.375 146.390625 "/>
<g style="fill:rgb(0%,0%,100%);fill-opacity:1;">
  <use xlink:href="#glyph0-1" x="202.375" y="160.004883"/>
</g>
<path style="fill:none;stroke-width:1.2;stroke-linecap:butt;stroke-linejoin:miter;stroke:rgb(0%,0%,0%);stroke-opacity:1;stroke-miterlimit:10;" d="M 239.160156 152.433594 L 250.335938 166.203125 "/>
<path style="fill:none;stroke-width:1.2;stroke-linecap:butt;stroke-linejoin:miter;stroke:rgb(100%,0%,0%);stroke-opacity:1;stroke-miterlimit:10;" d="M 250.335938 166.203125 L 261.511719 179.972656 "/>
<path style="fill:none;stroke-width:1.2;stroke-linecap:butt;stroke-linejoin:miter;stroke:rgb(0%,0%,0%);stroke-opacity:1;stroke-miterlimit:10;" d="M 245.640625 147.175781 L 256.816406 160.945312 "/>
<path style="fill:none;stroke-width:1.2;stroke-linecap:butt;stroke-linejoin:miter;stroke:rgb(100%,0%,0%);stroke-opacity:1;stroke-miterlimit:10;" d="M 256.816406 160.945312 L 267.988281 174.714844 "/>
<path style="fill:none;stroke-width:1.2;stroke-linecap:butt;stroke-linejoin:miter;stroke:rgb(0%,0%,0%);stroke-opacity:1;stroke-miterlimit:10;" d="M 242.398438 149.804688 L 255.074219 116.679688 "/>
<path style=" stroke:none;fill-rule:nonzero;fill:rgb(100%,100%,100%);fill-opacity:1;" d="M 258.75 168.34375 L 270.75 168.34375 L 270.75 186.34375 L 258.75 186.34375 Z M 258.75 168.34375 "/>
<g style="fill:rgb(100%,0%,0%);fill-opacity:1;">
  <use xlink:href="#glyph0-3" x="258.75" y="181.958008"/>
</g>
<path style="fill:none;stroke-width:1.2;stroke-linecap:butt;stroke-linejoin:miter;stroke:rgb(0%,0%,0%);stroke-opacity:1;stroke-miterlimit:10;" d="M 255.074219 116.679688 L 243.898438 102.910156 "/>
<path style="fill:none;stroke-width:1.2;stroke-linecap:butt;stroke-linejoin:miter;stroke:rgb(0%,0%,100%);stroke-opacity:1;stroke-miterlimit:10;" d="M 243.898438 102.910156 L 232.722656 89.140625 "/>
<path style="fill:none;stroke-width:1.2;stroke-linecap:butt;stroke-linejoin:miter;stroke:rgb(0%,0%,0%);stroke-opacity:1;stroke-miterlimit:10;" d="M 246.359375 119.183594 L 237.417969 108.167969 "/>
<path style="fill:none;stroke-width:1.2;stroke-linecap:butt;stroke-linejoin:miter;stroke:rgb(0%,0%,100%);stroke-opacity:1;stroke-miterlimit:10;" d="M 237.417969 108.167969 L 228.480469 97.152344 "/>
<path style=" stroke:none;fill-rule:nonzero;fill:rgb(100%,100%,100%);fill-opacity:1;" d="M 227.722656 80.140625 L 238.722656 80.140625 L 238.722656 98.140625 L 227.722656 98.140625 Z M 227.722656 80.140625 "/>
<g style="fill:rgb(0%,0%,100%);fill-opacity:1;">
  <use xlink:href="#glyph0-1" x="227.722656" y="93.754883"/>
</g>
<path style="fill:none;stroke-width:1.2;stroke-linecap:butt;stroke-linejoin:miter;stroke:rgb(0%,0%,0%);stroke-opacity:1;stroke-miterlimit:10;" d="M 194.699219 188.515625 L 159.675781 194.101562 "/>
<path style="fill:none;stroke-width:1.2;stroke-linecap:butt;stroke-linejoin:miter;stroke:rgb(0%,0%,0%);stroke-opacity:1;stroke-miterlimit:10;" d="M 159.675781 194.101562 L 137.324219 166.5625 "/>
<path style="fill:none;stroke-width:1.2;stroke-linecap:butt;stroke-linejoin:miter;stroke:rgb(0%,0%,0%);stroke-opacity:1;stroke-miterlimit:10;" d="M 150.960938 196.605469 L 133.082031 174.574219 "/>
<path style="fill:none;stroke-width:1.2;stroke-linecap:butt;stroke-linejoin:miter;stroke:rgb(0%,0%,0%);stroke-opacity:1;stroke-miterlimit:10;" d="M 147 227.226562 L 159.675781 194.101562 "/>
<path style="fill:none;stroke-width:1.2;stroke-linecap:butt;stroke-linejoin:miter;stroke:rgb(0%,0%,0%);stroke-opacity:1;stroke-miterlimit:10;" d="M 137.324219 166.5625 L 102.300781 172.148438 "/>
<path style="fill:none;stroke-width:1.2;stroke-linecap:butt;stroke-linejoin:miter;stroke:rgb(0%,0%,0%);stroke-opacity:1;stroke-miterlimit:10;" d="M 102.300781 172.148438 L 89.625 205.273438 "/>
<path style="fill:none;stroke-width:1.2;stroke-linecap:butt;stroke-linejoin:miter;stroke:rgb(0%,0%,0%);stroke-opacity:1;stroke-miterlimit:10;" d="M 108.828125 178.445312 L 98.6875 204.945312 "/>
<path style="fill:none;stroke-width:1.2;stroke-linecap:butt;stroke-linejoin:miter;stroke:rgb(0%,0%,0%);stroke-opacity:1;stroke-miterlimit:10;" d="M 102.300781 172.148438 L 91.125 158.378906 "/>
<path style="fill:none;stroke-width:1.2;stroke-linecap:butt;stroke-linejoin:miter;stroke:rgb(100%,0%,0%);stroke-opacity:1;stroke-miterlimit:10;" d="M 91.125 158.378906 L 79.949219 144.609375 "/>
<path style="fill:none;stroke-width:1.2;stroke-linecap:butt;stroke-linejoin:miter;stroke:rgb(0%,0%,0%);stroke-opacity:1;stroke-miterlimit:10;" d="M 89.625 205.273438 L 111.976562 232.8125 "/>
<path style="fill:none;stroke-width:1.2;stroke-linecap:butt;stroke-linejoin:miter;stroke:rgb(0%,0%,0%);stroke-opacity:1;stroke-miterlimit:10;" d="M 111.976562 232.8125 L 147 227.226562 "/>
<path style="fill:none;stroke-width:1.2;stroke-linecap:butt;stroke-linejoin:miter;stroke:rgb(0%,0%,0%);stroke-opacity:1;stroke-miterlimit:10;" d="M 114.164062 224.015625 L 142.183594 219.542969 "/>
<path style="fill:none;stroke-width:1.2;stroke-linecap:butt;stroke-linejoin:miter;stroke:rgb(100%,0%,0%);stroke-opacity:1;stroke-miterlimit:10;" d="M 79.949219 144.609375 L 62.4375 147.402344 "/>
<path style="fill:none;stroke-width:1.2;stroke-linecap:butt;stroke-linejoin:miter;stroke:rgb(0%,0%,0%);stroke-opacity:1;stroke-miterlimit:10;" d="M 62.4375 147.402344 L 44.925781 150.195312 "/>
<path style=" stroke:none;fill-rule:nonzero;fill:rgb(100%,100%,100%);fill-opacity:1;" d="M 73.949219 135.609375 L 85.949219 135.609375 L 85.949219 153.609375 L 73.949219 153.609375 Z M 73.949219 135.609375 "/>
<g style="fill:rgb(100%,0%,0%);fill-opacity:1;">
  <use xlink:href="#glyph0-3" x="73.949219" y="149.223633"/>
</g>
</g>
</svg>

<svg xmlns="http://www.w3.org/2000/svg" xmlns:xlink="http://www.w3.org/1999/xlink" width="300pt" height="300pt" viewBox="0 0 300 300"><defs><symbol overflow="visible"><path d="M.75 2.656v-13.234h7.5V2.656zm.844-.844h5.812V-9.733H1.594zm0 0"/></symbol><symbol overflow="visible" id="a"><path d="M1.47-10.938h2L8.31-1.78v-9.158H9.75V0h-2L2.906-9.14V0H1.47zm0 0"/></symbol><symbol overflow="visible" id="b"><path d="M1.47-10.938h1.483v4.485h5.375v-4.484h1.485V0H8.328v-5.203H2.953V0H1.47zm0 0"/></symbol><symbol overflow="visible" id="c"><path d="M5.906-9.938c-1.074 0-1.93.403-2.562 1.204-.625.804-.938 1.898-.938 3.28 0 1.376.313 2.466.938 3.266.633.805 1.488 1.204 2.562 1.204 1.07 0 1.922-.4 2.547-1.204.633-.8.953-1.89.953-3.265 0-1.383-.32-2.477-.953-3.28-.625-.802-1.476-1.204-2.547-1.204zm0-1.203c1.532 0 2.754.515 3.672 1.546.926 1.03 1.39 2.414 1.39 4.14 0 1.72-.464 3.095-1.39 4.126C8.66-.298 7.438.22 5.906.22c-1.53 0-2.76-.51-3.687-1.532C1.3-2.345.843-3.723.843-5.452c0-1.728.457-3.11 1.375-4.142.925-1.03 2.155-1.547 3.686-1.547zm0 0"/></symbol></defs><g><path fill="#fff" d="M0 0h300v300H0z"/><path d="M35.25 89.53l35.023-5.585M70.273 83.945l11.176 13.77" stroke-width="1.2" stroke="#000" stroke-miterlimit="10" fill="none"/><path d="M81.45 97.715l11.175 13.77M92.625 111.484l17.512-2.793" stroke-width="1.2" stroke="#00f" stroke-miterlimit="10" fill="none"/><path d="M110.137 108.69l17.51-2.792" stroke-width="1.2" stroke="#000" stroke-miterlimit="10" fill="none"/><path d="M81.625 102.484h23v18h-23zm0 0" fill="#fff"/><g fill="#00f"><use xlink:href="#a" x="81.625" y="116.099"/><use xlink:href="#b" x="92.601" y="116.099"/></g><path d="M127.648 105.898l6.34-16.562" stroke-width="1.2" stroke="#000" stroke-miterlimit="10" fill="none"/><path d="M133.988 89.336l6.336-16.563" stroke-width="1.2" stroke="#00f" stroke-miterlimit="10" fill="none"/><path d="M136.71 105.566l5.07-13.25" stroke-width="1.2" stroke="#000" stroke-miterlimit="10" fill="none"/><path d="M141.78 92.316l5.072-13.25M150 133.438l-11.176-13.77" stroke-width="1.2" stroke="#00f" stroke-miterlimit="10" fill="none"/><path d="M138.824 119.668l-11.176-13.77" stroke-width="1.2" stroke="#000" stroke-miterlimit="10" fill="none"/><path d="M140.324 72.773l17.512-2.793" stroke-width="1.2" stroke="#00f" stroke-miterlimit="10" fill="none"/><path d="M157.836 69.98l17.512-2.793" stroke-width="1.2" stroke="#000" stroke-miterlimit="10" fill="none"/><path d="M135.324 63.773h11v18h-11zm0 0" fill="#fff"/><use xlink:href="#a" x="135.324" y="77.388" fill="#00f"/><path d="M175.348 67.188l22.35 27.54M171.105 75.2l17.88 22.03M197.7 94.727l-12.677 33.125" stroke-width="1.2" stroke="#000" stroke-miterlimit="10" fill="none"/><path d="M232.723 89.14l-17.512 2.794" stroke-width="1.2" stroke="#00f" stroke-miterlimit="10" fill="none"/><path d="M215.21 91.934l-17.51 2.793M185.023 127.852l-17.51 2.793" stroke-width="1.2" stroke="#000" stroke-miterlimit="10" fill="none"/><path d="M167.512 130.645L150 133.437" stroke-width="1.2" stroke="#00f" stroke-miterlimit="10" fill="none"/><path d="M180.207 120.168l-14.008 2.234" stroke-width="1.2" stroke="#000" stroke-miterlimit="10" fill="none"/><path d="M166.2 122.402l-14.012 2.235" stroke-width="1.2" stroke="#00f" stroke-miterlimit="10" fill="none"/><path d="M185.023 127.852l11.176 13.77" stroke-width="1.2" stroke="#000" stroke-miterlimit="10" fill="none"/><path d="M196.2 141.62l11.175 13.77" stroke-width="1.2" stroke="#00f" stroke-miterlimit="10" fill="none"/><path d="M145 124.438h11v18h-11zm0 0" fill="#fff"/><use xlink:href="#a" x="145" y="138.052" fill="#00f"/><path d="M207.375 155.39l17.512-2.792" stroke-width="1.2" stroke="#00f" stroke-miterlimit="10" fill="none"/><path d="M224.887 152.598l17.51-2.793" stroke-width="1.2" stroke="#000" stroke-miterlimit="10" fill="none"/><path d="M207.375 155.39l-6.336 16.563" stroke-width="1.2" stroke="#00f" stroke-miterlimit="10" fill="none"/><path d="M201.04 171.953l-6.34 16.563" stroke-width="1.2" stroke="#000" stroke-miterlimit="10" fill="none"/><path d="M202.375 146.39h11v18h-11zm0 0" fill="#fff"/><use xlink:href="#a" x="202.375" y="160.005" fill="#00f"/><path d="M239.16 152.434l11.176 13.77" stroke-width="1.2" stroke="#000" stroke-miterlimit="10" fill="none"/><path d="M250.336 166.203l11.176 13.77" stroke-width="1.2" stroke="#f00" stroke-miterlimit="10" fill="none"/><path d="M245.64 147.176l11.176 13.77" stroke-width="1.2" stroke="#000" stroke-miterlimit="10" fill="none"/><path d="M256.816 160.945l11.172 13.77" stroke-width="1.2" stroke="#f00" stroke-miterlimit="10" fill="none"/><path d="M242.398 149.805l12.676-33.125" stroke-width="1.2" stroke="#000" stroke-miterlimit="10" fill="none"/><path d="M258.75 168.344h12v18h-12zm0 0" fill="#fff"/><use xlink:href="#c" x="258.75" y="181.958" fill="#f00"/><path d="M255.074 116.68l-11.176-13.77" stroke-width="1.2" stroke="#000" stroke-miterlimit="10" fill="none"/><path d="M243.898 102.91l-11.175-13.77" stroke-width="1.2" stroke="#00f" stroke-miterlimit="10" fill="none"/><path d="M246.36 119.184l-8.942-11.016" stroke-width="1.2" stroke="#000" stroke-miterlimit="10" fill="none"/><path d="M237.418 108.168l-8.938-11.016" stroke-width="1.2" stroke="#00f" stroke-miterlimit="10" fill="none"/><path d="M227.723 80.14h11v18h-11zm0 0" fill="#fff"/><use xlink:href="#a" x="227.723" y="93.755" fill="#00f"/><path d="M194.7 188.516l-35.024 5.586M159.676 194.102l-22.352-27.54M150.96 196.605l-17.878-22.03M147 227.227l12.676-33.125M137.324 166.563l-35.023 5.585M102.3 172.148l-12.675 33.125M108.828 178.445l-10.14 26.5M102.3 172.148l-11.175-13.77" stroke-width="1.2" stroke="#000" stroke-miterlimit="10" fill="none"/><path d="M91.125 158.38L79.95 144.61" stroke-width="1.2" stroke="#f00" stroke-miterlimit="10" fill="none"/><path d="M89.625 205.273l22.352 27.54M111.977 232.813L147 227.226M114.164 224.016l28.02-4.473" stroke-width="1.2" stroke="#000" stroke-miterlimit="10" fill="none"/><path d="M79.95 144.61L62.436 147.4" stroke-width="1.2" stroke="#f00" stroke-miterlimit="10" fill="none"/><path d="M62.438 147.402l-17.512 2.793" stroke-width="1.2" stroke="#000" stroke-miterlimit="10" fill="none"/><path d="M73.95 135.61h12v18h-12zm0 0" fill="#fff"/><use xlink:href="#c" x="73.949" y="149.224" fill="#f00"/></g></svg>
